polaris-icons/icons/TiktokIcon.svg

<svg xmlns="http://www.w3.org/2000/svg" viewBox="0 0 20 20"><path fill="#4A4A4A" fill-rule="evenodd" d="M16 6.2953C14.0808 6.17381 12.9721 4.98931 12.7374 3L10.4307 3.00753V11.375C10.7796 15.8396 6.59218 15.1638 6.26484 12.8784C6.09809 11.6863 6.69717 11.0029 7.76719 10.6461C7.92005 10.594 8.07909 10.5476 8.23967 10.5066C8.45274 10.4521 8.66736 10.4074 8.87581 10.3727V8.01132C4.08003 8.17838 3.16133 12.4836 4.65595 14.9285C6.97819 18.7325 12.7683 17.0772 12.7683 11.7622V7.58613C13.9063 8.26944 14.8852 8.63389 16 8.52767V6.2953Z"/></svg>

<svg xmlns="http://www.w3.org/2000/svg" viewBox="0 0 20 20"><path fill="#4A4A4A" fill-rule="evenodd" d="M16 6.295c-1.92-.121-3.028-1.306-3.263-3.295l-2.306.008v8.367c.349 4.465-3.839 3.789-4.166 1.503-.167-1.192.432-1.875 1.502-2.232a6.841 6.841 0 0 1 1.109-.273v-2.362c-4.796.167-5.715 4.473-4.22 6.918 2.322 3.804 8.112 2.148 8.112-3.167v-4.176c1.138.683 2.117 1.048 3.232.942v-2.233Z"/></svg>
